X: 8330
T: Cota Mor Ealasaid
R: reel
M: 4/4
K: Amixolydian
|:a|"A"ed c2 "G"dcBd|"A"cA A/A/A "G"g2 "D"fa|"A"ed c2"G"dcBd|"Em"eg"G"dB "A"A2 A:|
|:B|"A"c2 ce "G"dBBd|"A"cA A/A/A "G"g2 "D"fa|"A"c2 ce "G"dBBd|"Em"eg"G"dB "A"A2 A:|

